symbols/web/folder_open/materialsymbolsoutlined/folder_open_wght200gradN25fill1_40px.svg

<svg xmlns="http://www.w3.org/2000/svg" height="40" width="40"><path d="M7.292 31.583q-.917 0-1.542-.645-.625-.646-.625-1.563v-17.25q0-.875.729-1.625T7.5 9.75h10.75L20 11.5h12.5q.708 0 1.271.375.562.375.812 1H6.458v16.208q0 .375.188.605.187.229.479.395l4-14.208h27.167L34.25 29.958q-.25.792-.833 1.209-.584.416-1.375.416Z"/></svg>

<svg xmlns="http://www.w3.org/2000/svg" height="40" width="40"><path d="M7.292 31.583Q6.375 31.583 5.75 30.938Q5.125 30.292 5.125 29.375V12.125Q5.125 11.25 5.854 10.5Q6.583 9.75 7.5 9.75H18.25L20 11.5H32.5Q33.208 11.5 33.771 11.875Q34.333 12.25 34.583 12.875H6.458V29.083Q6.458 29.458 6.646 29.688Q6.833 29.917 7.125 30.083L11.125 15.875H38.292L34.25 29.958Q34 30.75 33.417 31.167Q32.833 31.583 32.042 31.583Z"/></svg>
